img/block-4-mobile.svg

<svg width="359" height="145" viewBox="0 0 359 145" fill="none" xmlns="http://www.w3.org/2000/svg">
<path d="M353.496 116.829L353.475 24.0205C353.473 12.5879 343.9 3.43539 332.479 3.94467L22.2216 17.779C11.5788 18.2535 3.2195 26.9882 3.21277 37.6414L3.16962 105.957C3.16279 116.778 11.768 125.686 22.5879 126.058L332.91 136.716C344.182 137.104 353.499 128.104 353.496 116.829Z" fill="#FF8D07"/>
<path d="M354.505 113.821L354.478 21.0118C354.474 9.57927 344.902 0.426005 333.48 0.934426L23.0269 14.7542C12.3841 15.2279 4.02526 23.9619 4.0192 34.615L3.98025 102.929C3.97408 113.751 12.5805 122.66 23.4008 123.032L333.92 133.707C345.193 134.094 354.508 125.095 354.505 113.821Z" stroke="black"/>
</svg>

<svg width="359" height="145" viewBox="0 0 359 145" fill="none" xmlns="http://www.w3.org/2000/svg"><path d="M353.496 116.829l-.021-92.808c-.002-11.433-9.575-20.586-20.996-20.076L22.222 17.779c-10.643.474-19.003 9.21-19.01 19.862l-.042 68.316c-.007 10.821 8.598 19.729 19.418 20.101l310.322 10.658c11.272.388 20.589-8.612 20.586-19.887z" fill="#FF8D07"/><path d="M354.505 113.821l-.027-92.81C354.474 9.58 344.902.427 333.48.935L23.027 14.754c-10.643.474-19.002 9.208-19.008 19.861l-.039 68.314c-.006 10.822 8.6 19.731 19.42 20.103l310.52 10.675c11.273.387 20.588-8.612 20.585-19.886z" stroke="#000"/></svg>
